src/48x48/places/folder-gruvbox-mix-orange-code.svg

<svg xmlns="http://www.w3.org/2000/svg" width="48" height="48" version="1">
 <rect style="opacity:0.2" width="40" height="26" x="4" y="17" rx="2" ry="2"/>
 <path style="fill:#b94c07" d="M 4,34 C 4,35.108 4.892,36 6,36 H 42 C 43.108,36 44,35.108 44,34 V 12 C 44,10.892 43.108,10 42,10 H 24 C 21,10 20,6 17,6 H 6 C 4.892,6 4,6.892 4,8"/>
 <rect style="opacity:0.2" width="40" height="26" x="4" y="15" rx="2" ry="2"/>
 <rect style="fill:#F6E0B4" width="36" height="16" x="6" y="13" rx="2" ry="2"/>
 <rect style="fill:#f28534" width="40" height="26" x="4" y="16" rx="2" ry="2"/>
 <path style="opacity:0.1;fill:#F6E0B4" d="M 6,6 C 4.892,6 4,6.892 4,8 V 9 C 4,7.892 4.892,7 6,7 H 17 C 20,7 21,11 24,11 H 42 C 43.108,11 44,11.892 44,13 V 12 C 44,10.892 43.108,10 42,10 H 24 C 21,10 20,6 17,6 Z"/>
 <path style="fill:#4E3B30" d="M 28 20.998047 L 28 23.998047 L 32.5 27.998047 L 28 31.998047 L 28 34.998047 L 36 28.130859 L 28 20.998047 z M 25.144531 21.027344 L 21.003906 36.482422 L 22.935547 37 L 27.078125 21.544922 L 25.144531 21.027344 z M 20 22.998047 L 12 30.130859 L 20 36.998047 L 20 33.998047 L 15.5 29.998047 L 20 25.998047 L 20 22.998047 z"/>
</svg>

<?xml version="1.0" encoding="UTF-8"?>
<svg width="48" height="48" version="1" xmlns="http://www.w3.org/2000/svg">
 <rect x="4" y="17" width="40" height="26" rx="2" ry="2" opacity=".2"/>
 <path d="m4 34c0 1.108 0.892 2 2 2h36c1.108 0 2-0.892 2-2v-22c0-1.108-0.892-2-2-2h-18c-3 0-4-4-7-4h-11c-1.108 0-2 0.892-2 2" fill="#b94c07"/>
 <rect x="4" y="15" width="40" height="26" rx="2" ry="2" opacity=".2"/>
 <rect x="6" y="13" width="36" height="16" rx="2" ry="2" fill="#F6E0B4"/>
 <rect x="4" y="16" width="40" height="26" rx="2" ry="2" fill="#f28534"/>
 <path d="m6 6c-1.108 0-2 0.892-2 2v1c0-1.108 0.892-2 2-2h11c3 0 4 4 7 4h18c1.108 0 2 0.892 2 2v-1c0-1.108-0.892-2-2-2h-18c-3 0-4-4-7-4z" fill="#F6E0B4" opacity=".1"/>
 <path d="m28 20.998v3l4.5 4-4.5 4v3l8-6.8672-8-7.1328zm-2.8555 0.029297-4.1406 15.455 1.9316 0.51758 4.1426-15.455-1.9336-0.51758zm-5.1445 1.9707-8 7.1328 8 6.8672v-3l-4.5-4 4.5-4v-3z" fill="#4E3B30"/>
</svg>
